X: 41994
T: Walmgate Stray
R: slip jig
M: 9/8
K: Edorian
|:E2 FG2A2< B2|E2 FG2A2< d2|E2 FG2A g2 f|e2 B2>c2 dc B|
E2 FG2A2< B2|E2 FG2A2< d2|E2 FG2A g2 f|e2 B2>c2 dc B:|
|:e2 B2>c2 dc B|e2 B2>c2 dc B|AB AF AF2< D2|D2 EF2A d2 f|
e2 B2>c2 dc B|e2 B2>c2 dc B|A2 DF2A d2 B|A2 FD EF2< E2:|

